third_party/noto/noto_2/emoji_u1f3d7.svg

<svg enable-background="new 0 0 128 128" version="1.1" viewBox="0 0 128 128" xmlns="http://www.w3.org/2000/svg"><path d="m6.19 29.89 34.05-16.23s11.43 2.54 33.7 8.01c25.93 6.37 31.16 8.69 31.16 8.69l-7.81 2.15-6.35-2.34-50.6-12.11-27.16 12.6-5.96 0.88-1.03-1.65z" fill="#858585"/><path d="m8.88 47.88v18.67s0.42 1.15 1.21 1.21 11.18-0.12 11.78-0.06 1.27-0.48 1.27-1.57 0-18.18 0-18.18-3.62-2.72-4.05-2.66-10.21 2.59-10.21 2.59z" fill="#858585"/><path d="m13.3 52.2c-0.84 0.1-1.21 0.6-1.21 1.57s-0.12 7.49-0.12 8.15 0.06 1.33 1.03 1.39 5.32 0.12 5.86 0.06 0.97-0.66 1.03-1.45 0-7.85 0-8.4c0-0.97-0.66-1.27-1.51-1.27s-4.12-0.17-5.08-0.05z" fill="#B0B0B0"/><path d="m101.96 53.26 0.12-6.22-14.62 0.06-0.12 5.86 3.62 3.93h2.15c-0.08 5.81-0.34 24.04-0.34 24.04s-0.82 1.17-1.75 2.05c-1.21 1.15-3.2 2.66-3.02 6.4 0.17 3.44 3.56 6.04 6.89 6.04 3.56 0 5.98-2.6 6.1-5.07 0.12-2.48-0.85-2.58-1.39-2.66-0.85-0.12-1.51 0.48-1.69 1.57s-1.27 2.48-3.14 2.05-3.08-2.48-1.57-4.47c1.08-1.43 3.14-1.87 3.32-3.08 0.16-1.04 0.04-21.36 0.01-26.88h2.23l3.2-3.62z" fill="#858587"/><path d="m91.16 68.82c-0.75 0.12-0.92 0.64-0.92 1.33s0.01 7.55 0.01 8.01 0 0.92 0.64 0.98 7.22 0.06 7.56 0.06c0.52 0 0.81-0.64 0.81-1.44 0-0.81 0.04-7.56 0-8.02-0.06-0.75-0.75-0.92-1.33-0.98-0.58-0.07-6.25-0.02-6.77 0.06z" fill="#F1901B"/><rect x="74.54" y="103.5" width="44.65" height="6.93" fill="#AF0C1A"/><path d="m69.17 99.11 0.12 5.37s54.38 0.29 54.44 0.12 0.12-5.08-0.12-5.2c-0.23-0.12-54.44-0.29-54.44-0.29z" fill="#DC0D2A"/><path d="m69.17 108.4v5.31l54.67 0.06s0.12-5.14-0.06-5.14c-0.17 0.01-54.61-0.23-54.61-0.23z" fill="#DC0D2A"/><path d="m83.66 98.07c-1.15 0.53-0.99 1.44-0.98 2.37 0.04 4.06 0.23 13.28 0.23 13.28s0.27 1.33 2.02 1.33c2.09 0 2.25-1.39 2.25-1.39v-13.8l7.89-6.54 10.47 7.69s0.29 11.95 0.29 12.64 0.69 1.62 2.31 1.56c1.85-0.07 2.08-1.56 2.08-1.56s-0.07-12.8-0.13-13.86c-0.1-1.58-2.47-1.55-2.47-1.55s-11.55-9.19-12.59-9.24c-1.15-0.05-10.57 8.7-11.37 9.07z" fill="#FF510F"/><path d="m124.4 45.16c-0.54-0.57-15.92-15.65-16.66-15.65s-55.64 0-55.64 0-8.91-13.36-10.05-15.01c-1.28-1.86-2.43-1.96-3.59-0.05-0.47 0.78-9.04 14.96-9.04 14.96s-22.6 0.29-23.9 0.19c-1.3-0.09-1.67 0.56-1.67 1.11 0 0.56 0 18.24 0.28 18.42s22.96 0.09 22.96 0.09l-0.19 67.4s-2.02 0.04-3.41 0.04-2.16 0.02-2.15 1.08c0 0.56-0.02 2.96 0 3.8 0.04 1.6-0.13 2.42 0.93 2.41 0.93-0.01 32.5 0 34.26 0s1.76-1.11 1.76-1.67v-4.44s-0.83-1.3-1.48-1.3h-3.98v-51.2s3.43 0.19 7.13-0.37 4.9-4.66 5.55-7.62 0.47-8.36 0.47-8.36 57.3 0.15 58.51-0.31c1.2-0.47 1.56-1.75-0.09-3.52zm-115.07-10.95h6.7l-6.7 7.48v-7.48zm3.66 8.53 5.16-5.85 6.18 5.85h-11.34zm14.4-1.65-6.95-6.88h6.95v6.88zm19.64 55.67-7.04 7.12-7.08-7.12h14.12zm-12.37-3.33 5.54-5.72 5.69 5.65-11.23 0.07zm5.12-32.68-7.98-7.51h15.35l-7.37 7.51zm9.04-3.88v12.4l-6.37-6 6.37-6.4zm-2.49 15.65h-13.07l6.47-6.51 6.6 6.51zm2.49 5.83v12.58l-6.17-6.01 6.17-6.57zm-2.83-2.56-6.09 6.68-6.49-6.56 12.58-0.12zm3.34-30.95h-14.11l14.12-8.18v8.18zm-9.22-25.13s6.36 9.23 6.2 9.54c-0.08 0.16-3.32 0.04-6.4 0.02-2.9-0.01-5.66 0.09-5.69-0.1-0.08-0.38 5.89-9.46 5.89-9.46zm-8.38 14.43h14.34l-14.4 8.69 0.06-8.69zm-0.61 23.37 6.01 5.94-6.01 6.12v-12.06zm0 21.23 6.18 6.23-6.14 6.48-0.04-12.71zm0 21.63 6.21 6.21-6.21 6.28v-12.49zm1.79 16.32 7.12-7.41 7.27 7.27c-3.25-0.01-10.9 0.09-14.39 0.14zm15.91-3.92-6.18-6.22 6.18-6.43v12.65zm4.24-67.93 0.06-8.89 8.46 8.91c-5.17-0.02-8.52-0.02-8.52-0.02zm13.01-0.72-10.02-10.23 20.17-0.06-10.15 10.29zm4.55 0.76 9.77-9.56 10.2 9.61c-6.72-0.02-13.8-0.04-19.97-0.05zm13.23-11.07 21.67-0.06-10.7 10.47-10.97-10.41zm32.94 11.18c-0.1 0-7.37-0.02-16.96-0.04 2.34-2.36 7.12-7.19 9.09-9.18 2.65 2.69 7.09 7.21 7.79 7.91 1.01 1 0.39 1.31 0.08 1.31z" fill="#F3911C"/><path d="m52.74 48.75s0.08 6.69-0.08 6.77-25.73-0.06-26.21-0.22-0.47-6.47-0.24-6.55 26.53 0 26.53 0z" fill="#D15116"/><path d="m57.12 50.68 0.04 7.23 6.36 4.74s1.52-1.77 2.21-5.71c0.58-3.29 0.26-6.35 0.26-6.35s-8.77-0.03-8.87 0.09z" fill="#A7D0D6"/></svg>

<?xml version="1.0" encoding="utf-8"?>
<!-- Generator: Adobe Illustrator 25.2.3, SVG Export Plug-In . SVG Version: 6.00 Build 0)  -->
<svg version="1.1" id="Layer_2" xmlns="http://www.w3.org/2000/svg" xmlns:xlink="http://www.w3.org/1999/xlink" x="0px" y="0px"
	 viewBox="0 0 128 128" style="enable-background:new 0 0 128 128;" xml:space="preserve">
<path style="fill:#858585;" d="M6.19,29.89l34.05-16.23c0,0,11.43,2.54,33.7,8.01c25.93,6.37,31.16,8.69,31.16,8.69l-7.81,2.15
	l-6.35-2.34l-50.6-12.11l-27.16,12.6l-5.96,0.88L6.19,29.89z"/>
<path style="fill:#858585;" d="M8.88,47.88c0,0,0,18.06,0,18.67s0.42,1.15,1.21,1.21c0.79,0.06,11.18-0.12,11.78-0.06
	s1.27-0.48,1.27-1.57s0-18.18,0-18.18s-3.62-2.72-4.05-2.66S8.88,47.88,8.88,47.88z"/>
<path style="fill:#B0B0B0;" d="M13.3,52.2c-0.84,0.1-1.21,0.6-1.21,1.57s-0.12,7.49-0.12,8.15c0,0.66,0.06,1.33,1.03,1.39
	c0.97,0.06,5.32,0.12,5.86,0.06c0.54-0.06,0.97-0.66,1.03-1.45c0.06-0.79,0-7.85,0-8.4c0-0.97-0.66-1.27-1.51-1.27
	S14.26,52.08,13.3,52.2z"/>
<path style="fill:#858587;" d="M101.96,53.26l0.12-6.22L87.46,47.1l-0.12,5.86l3.62,3.93h2.15c-0.08,5.81-0.34,24.04-0.34,24.04
	s-0.82,1.17-1.75,2.05c-1.21,1.15-3.2,2.66-3.02,6.4c0.17,3.44,3.56,6.04,6.89,6.04c3.56,0,5.98-2.6,6.1-5.07
	c0.12-2.48-0.85-2.58-1.39-2.66c-0.85-0.12-1.51,0.48-1.69,1.57s-1.27,2.48-3.14,2.05s-3.08-2.48-1.57-4.47
	c1.08-1.43,3.14-1.87,3.32-3.08c0.16-1.04,0.04-21.36,0.01-26.88h2.23L101.96,53.26z"/>
<path style="fill:#F1901B;" d="M91.16,68.82c-0.75,0.12-0.92,0.64-0.92,1.33c0,0.69,0.01,7.55,0.01,8.01s0,0.92,0.64,0.98
	c0.64,0.06,7.22,0.06,7.56,0.06c0.52,0,0.81-0.64,0.81-1.44c0-0.81,0.04-7.56,0-8.02c-0.06-0.75-0.75-0.92-1.33-0.98
	C97.35,68.69,91.68,68.74,91.16,68.82z"/>
<rect x="74.54" y="103.5" style="fill:#AF0C1A;" width="44.65" height="6.93"/>
<path style="fill:#DC0D2A;" d="M69.17,99.11l0.12,5.37c0,0,54.38,0.29,54.44,0.12c0.06-0.17,0.12-5.08-0.12-5.2
	C123.38,99.28,69.17,99.11,69.17,99.11z"/>
<path style="fill:#DC0D2A;" d="M69.17,108.4v5.31l54.67,0.06c0,0,0.12-5.14-0.06-5.14C123.61,108.64,69.17,108.4,69.17,108.4z"/>
<path style="fill:#FF510F;" d="M83.66,98.07c-1.15,0.53-0.99,1.44-0.98,2.37c0.04,4.06,0.23,13.28,0.23,13.28s0.27,1.33,2.02,1.33
	c2.09,0,2.25-1.39,2.25-1.39v-13.8l7.89-6.54l10.47,7.69c0,0,0.29,11.95,0.29,12.64c0,0.69,0.69,1.62,2.31,1.56
	c1.85-0.07,2.08-1.56,2.08-1.56s-0.07-12.8-0.13-13.86c-0.1-1.58-2.47-1.55-2.47-1.55s-11.55-9.19-12.59-9.24
	C93.88,88.95,84.46,97.7,83.66,98.07z"/>
<path style="fill:#F3911C;" d="M124.4,45.16c-0.54-0.57-15.92-15.65-16.66-15.65s-55.64,0-55.64,0s-8.91-13.36-10.05-15.01
	c-1.28-1.86-2.43-1.96-3.59-0.05c-0.47,0.78-9.04,14.96-9.04,14.96S6.82,29.7,5.52,29.6c-1.3-0.09-1.67,0.56-1.67,1.11
	c0,0.56,0,18.24,0.28,18.42s22.96,0.09,22.96,0.09l-0.19,67.4c0,0-2.02,0.04-3.41,0.04c-1.39,0-2.16,0.02-2.15,1.08
	c0,0.56-0.02,2.96,0,3.8c0.04,1.6-0.13,2.42,0.93,2.41c0.93-0.01,32.5,0,34.26,0c1.76,0,1.76-1.11,1.76-1.67c0-0.56,0-3.52,0-4.44
	s-0.83-1.3-1.48-1.3c-0.65,0-3.98,0-3.98,0v-51.2c0,0,3.43,0.19,7.13-0.37c3.7-0.56,4.9-4.66,5.55-7.62
	c0.65-2.96,0.47-8.36,0.47-8.36s57.3,0.15,58.51-0.31C125.69,48.21,126.05,46.93,124.4,45.16z M9.33,34.21h6.7l-6.7,7.48
	C9.33,39.4,9.33,34.15,9.33,34.21z M12.99,42.74l5.16-5.85l6.18,5.85H12.99z M27.39,41.09l-6.95-6.88h6.95V41.09z M47.03,96.76
	l-7.04,7.12l-7.08-7.12H47.03z M34.66,93.43l5.54-5.72l5.69,5.65L34.66,93.43z M39.78,60.75l-7.98-7.51h15.35L39.78,60.75z
	 M48.82,56.87v12.4l-6.37-6L48.82,56.87z M46.33,72.52H33.26l6.47-6.51L46.33,72.52z M48.82,78.35v12.58l-6.17-6.01L48.82,78.35z
	 M45.99,75.79l-6.09,6.68l-6.49-6.56L45.99,75.79z M49.33,44.84H35.22l14.12-8.18V44.84z M40.11,19.71c0,0,6.36,9.23,6.2,9.54
	c-0.08,0.16-3.32,0.04-6.4,0.02c-2.9-0.01-5.66,0.09-5.69-0.1C34.14,28.79,40.11,19.71,40.11,19.71z M31.73,34.14h14.34l-14.4,8.69
	L31.73,34.14z M31.12,57.51l6.01,5.94l-6.01,6.12V57.51z M31.12,78.74l6.18,6.23l-6.14,6.48L31.12,78.74z M31.12,100.37l6.21,6.21
	l-6.21,6.28V100.37z M32.91,116.69l7.12-7.41l7.27,7.27C44.05,116.54,36.4,116.64,32.91,116.69z M48.82,112.77l-6.18-6.22l6.18-6.43
	V112.77z M53.06,44.84l0.06-8.89l8.46,8.91C56.41,44.84,53.06,44.84,53.06,44.84z M66.07,44.12L56.05,33.89l20.17-0.06L66.07,44.12z
	 M70.62,44.88l9.77-9.56l10.2,9.61C83.87,44.91,76.79,44.89,70.62,44.88z M83.85,33.81l21.67-0.06L94.82,44.22L83.85,33.81z
	 M116.79,44.99c-0.1,0-7.37-0.02-16.96-0.04c2.34-2.36,7.12-7.19,9.09-9.18c2.65,2.69,7.09,7.21,7.79,7.91
	C117.72,44.68,117.1,44.99,116.79,44.99z"/>
<path style="fill:#D15116;" d="M52.74,48.75c0,0,0.08,6.69-0.08,6.77c-0.16,0.08-25.73-0.06-26.21-0.22s-0.47-6.47-0.24-6.55
	S52.74,48.75,52.74,48.75z"/>
<path style="fill:#A7D0D6;" d="M57.12,50.68l0.04,7.23l6.36,4.74c0,0,1.52-1.77,2.21-5.71c0.58-3.29,0.26-6.35,0.26-6.35
	S57.22,50.56,57.12,50.68z"/>
</svg>
